X:19062
T:Streamers and Confetti
T:Serpentiner och Konfetti
R:Reijlnder
C:Mats Edn
O:Sweden
Z:Paul Hardy's Session Tunebook 2015 (see www.paulhardy.net). Creative Commons cc by-nc-sa licenced.
M:2/2
L:1/8
Q:1/2=75
K:D
AG|"D"FGAF "G"GABG|"Em"EFGA "D"F2Dd|"A"cded c3B|"G"BABc B2AG|
"D"FGAF "G"GABG|"Em"EFGA "D"F2Dd|"A"cded cABc|"A7"e2dc "D"d2:|
|:de|"D"f2f2 "G"g2fg|"D"agfg adfa|"Bm"b2b2 "G"g3f|"Em"eceg "D"f2de|
"D"f2f2 "G"g2fg|"D"agfg adfa|"Bm"b2b2 "Em"gfec|"A7"e2dc "D"d2:|

